src/images/Group 6.svg

<?xml version="1.0" encoding="UTF-8"?>
<svg width="261px" height="61px" viewBox="0 0 261 61" version="1.1" xmlns="http://www.w3.org/2000/svg" xmlns:xlink="http://www.w3.org/1999/xlink">
    <!-- Generator: Sketch 51.3 (57544) - http://www.bohemiancoding.com/sketch -->
    <title>Group 6</title>
    <desc>Created with Sketch.</desc>
    <defs>
        <linearGradient x1="99.9939852%" y1="49.9965466%" x2="-0.00051897101%" y2="49.9965466%" id="linearGradient-1">
            <stop stop-color="#FFFFFF" offset="0%"></stop>
            <stop stop-color="#2F5D7F" offset="100%"></stop>
        </linearGradient>
        <linearGradient x1="-0.00644252236%" y1="50.0017286%" x2="100.001604%" y2="50.0017286%" id="linearGradient-2">
            <stop stop-color="#FFFFFF" offset="0%"></stop>
            <stop stop-color="#2F5D7F" offset="100%"></stop>
        </linearGradient>
    </defs>
    <g id="Welcome" stroke="none" stroke-width="1" fill="none" fill-rule="evenodd">
        <g id="Desktop-HD" transform="translate(-250.000000, -19.000000)">
            <g id="Header">
                <g id="Group-6" transform="translate(250.000000, 19.000000)">
                    <g id="Group" transform="translate(112.000000, 14.000000)" fill="#FFFFFF" font-family="RobotoMonoForPowerline-Light, Roboto Mono Light for Powerline" font-size="28" font-weight="300">
                        <text id="codeGregg">
                            <tspan x="0.387695312" y="26">codeGregg</tspan>
                        </text>
                    </g>
                    <g id="Artboard-2" fill-rule="nonzero">
                        <g id="Group">
                            <path d="M13.9068293,30.449863 L30.8404878,47.5131507 C32.5470553,49.2295941 33.5060614,51.5595052 33.5060614,53.9891781 C33.5060614,56.418851 32.5470553,58.7487621 30.8404878,60.4652055 C30.6978347,60.6114249 30.5028759,60.6937814 30.2993902,60.6937814 C30.0959046,60.6937814 29.9009458,60.6114249 29.7582927,60.4652055 L6.95341463,37.4356164 L13.9068293,30.449863 Z M0.526585366,30.959589 L6.41439024,36.8882877 C6.71364995,37.1883923 7.19732566,37.1883923 7.49658537,36.8882877 L30.9939024,13.2110959 C32.6543826,11.5395488 33.5873679,9.27145734 33.5873679,6.90636986 C33.5873679,4.54128238 32.6543826,2.27319094 30.9939024,0.601643836 L30.8239024,0.430342466 C30.6812493,0.284122996 30.4862906,0.201766524 30.2828049,0.201766524 C30.0793192,0.201766524 29.8843604,0.284122996 29.7417073,0.430342466 L0.526585366,29.8649315 C0.232820323,30.1724811 0.240225289,30.6612193 0.543170732,30.959589 L0.526585366,30.959589 Z" id="Shape" fill="#FFFFFF"></path>
                            <g id="Shape">
                                <path d="M13.9068293,30.449863 L30.8404878,47.5131507 C32.5470553,49.2295941 33.5060614,51.5595052 33.5060614,53.9891781 C33.5060614,56.418851 32.5470553,58.7487621 30.8404878,60.4652055 C30.6978347,60.6114249 30.5028759,60.6937814 30.2993902,60.6937814 C30.0959046,60.6937814 29.9009458,60.6114249 29.7582927,60.4652055 L6.09512195,36.5540411 L13.9068293,30.449863 Z M0.543170732,30.959589 L6.43097561,36.8882877 C6.73023532,37.1883923 7.21391102,37.1883923 7.51317073,36.8882877 L31.0104878,13.2110959 C32.6709679,11.5395488 33.6039532,9.27145734 33.6039532,6.90636986 C33.6039532,4.54128238 32.6709679,2.27319094 31.0104878,0.601643836 L30.8404878,0.430342466 C30.6978347,0.284122996 30.5028759,0.201766524 30.2993902,0.201766524 C30.0959046,0.201766524 29.9009458,0.284122996 29.7582927,0.430342466 L0.543170732,29.8649315 C0.244864462,30.1679115 0.244864462,30.656609 0.543170732,30.959589 Z" fill="url(#linearGradient-1)"></path>
                                <g fill="#FFFFFF">
                                    <path d="M0.630243902,31.0431507 L6.97,37.4356164 L30.927561,13.2988356 C34.4306217,9.76813228 34.4306217,4.04460745 30.927561,0.51390411 C30.5823319,0.172027087 30.0288877,0.172027087 29.6836585,0.51390411 L0.638536585,29.7813699 C0.469797503,29.9467168 0.373913714,30.1733459 0.372355012,30.4105117 C0.37079631,30.6476774 0.463692913,30.8755663 0.630243902,31.0431507 Z"></path>
                                </g>
                            </g>
                        </g>
                        <g id="Group" transform="translate(64.000000, 0.000000)">
                            <path d="M20.1791667,30.449863 L3.15833333,47.5131507 C-0.406277557,51.090687 -0.406277557,56.8876692 3.15833333,60.4652055 C3.30295492,60.6106349 3.49935041,60.692371 3.70416667,60.692371 C3.90898293,60.692371 4.10537841,60.6106349 4.25,60.4652055 L27.1458333,37.4356164 L20.1791667,30.449863 Z M33.6083333,30.959589 L27.6916667,36.8882877 C27.5483143,37.0345071 27.3523998,37.1168636 27.1479167,37.1168636 C26.9434335,37.1168636 26.747519,37.0345071 26.6041667,36.8882877 L2.99166667,13.2110959 C1.32304694,11.5395488 0.385488184,9.27145734 0.385488184,6.90636986 C0.385488184,4.54128238 1.32304694,2.27319094 2.99166667,0.601643836 L3.1625,0.430342466 C3.46322667,0.130237805 3.94927333,0.130237805 4.25,0.430342466 L33.6083333,29.8691096 C33.907618,30.1706602 33.907618,30.6580385 33.6083333,30.959589 Z" id="Shape" fill="#FFFFFF"></path>
                            <g id="Shape">
                                <path d="M20.1791667,30.449863 L3.15833333,47.5131507 C-0.406277557,51.090687 -0.406277557,56.8876692 3.15833333,60.4652055 C3.30295492,60.6106349 3.49935041,60.692371 3.70416667,60.692371 C3.90898293,60.692371 4.10537841,60.6106349 4.25,60.4652055 L28.025,36.5540411 L20.1791667,30.449863 Z M33.6083333,30.959589 L27.6916667,36.8882877 C27.5483143,37.0345071 27.3523998,37.1168636 27.1479167,37.1168636 C26.9434335,37.1168636 26.747519,37.0345071 26.6041667,36.8882877 L2.99166667,13.2110959 C1.32304694,11.5395488 0.385488184,9.27145734 0.385488184,6.90636986 C0.385488184,4.54128238 1.32304694,2.27319094 2.99166667,0.601643836 L3.1625,0.430342466 C3.46322667,0.130237805 3.94927333,0.130237805 4.25,0.430342466 L33.6083333,29.8691096 C33.907618,30.1706602 33.907618,30.6580385 33.6083333,30.959589 Z" fill="url(#linearGradient-2)"></path>
                                <g transform="translate(0.416667, 0.000000)" fill="#FFFFFF">
                                    <path d="M33.1041667,31.0431507 L26.7291667,37.4356164 L2.65833333,13.2988356 C-0.861899289,9.76813228 -0.861899289,4.04460745 2.65833333,0.51390411 C3.00525475,0.172027087 3.56141192,0.172027087 3.90833333,0.51390411 L33.0958333,29.7813699 C33.2653996,29.9467168 33.3617534,30.1733459 33.3633197,30.4105117 C33.3648861,30.6476774 33.2715341,30.8755663 33.1041667,31.0431507 Z"></path>
                                </g>
                            </g>
                        </g>
                        <path d="M56.1641993,29.4832626 L63.367456,29.4832626 L63.367456,42.8182746 C61.4307913,44.2066742 59.25626,45.2560613 56.943046,45.9185716 C54.5625833,46.6292992 52.0853864,46.9930092 49.5934866,46.9976575 C46.2746789,47.0476339 42.9954935,46.2972297 40.0536897,44.8145836 C37.3027501,43.423459 35.0036033,41.3265406 33.4098257,38.755101 C30.1967248,33.3297263 30.1967248,26.6702311 33.4098257,21.2448564 C35.0142718,18.6639894 37.3328894,16.5656215 40.105326,15.1853738 C43.0826561,13.7027347 46.3937491,12.9528088 49.7440924,13.0022999 C52.5243743,12.9623479 55.2853923,13.4532057 57.8681955,14.446615 C60.2303242,15.3664892 62.3319958,16.8146173 64,18.6716515 L58.9396476,23.1789105 C56.6884693,20.7820754 53.4799108,19.4311643 50.1270612,19.4685149 C48.1189099,19.4404322 46.1353347,19.8969725 44.3567104,20.7966207 C42.7004739,21.6423829 41.3320183,22.9305791 40.4151435,24.5070162 C38.5332475,27.9279115 38.5332475,32.0263923 40.4151435,35.4472876 C41.3314501,37.0218864 42.6883392,38.3162454 44.3308923,39.1825851 C46.0875295,40.096114 48.058527,40.5577994 50.0539099,40.5231418 C52.1881051,40.5554095 54.2965278,40.0701981 56.1857144,39.1120294 L56.1641993,29.4832626 Z" id="Shape" fill="#FFFFFF"></path>
                    </g>
                </g>
            </g>
        </g>
    </g>
</svg>

<svg width="261" height="61" xmlns="http://www.w3.org/2000/svg"><defs><linearGradient x1="99.994%" y1="49.997%" x2="-.001%" y2="49.997%" id="a"><stop stop-color="#FFF" offset="0%"/><stop stop-color="#2F5D7F" offset="100%"/></linearGradient><linearGradient x1="-.006%" y1="50.002%" x2="100.002%" y2="50.002%" id="b"><stop stop-color="#FFF" offset="0%"/><stop stop-color="#2F5D7F" offset="100%"/></linearGradient></defs><g fill="none" fill-rule="evenodd"><text transform="translate(112 14)" fill="#FFF" font-family="RobotoMonoForPowerline-Light, Roboto Mono Light for Powerline" font-size="28" font-weight="300"><tspan x=".388" y="26">codeGregg</tspan></text><g fill-rule="nonzero"><path d="M13.907 30.45L30.84 47.513a9.186 9.186 0 0 1 2.666 6.476c0 2.43-.959 4.76-2.666 6.476a.756.756 0 0 1-1.082 0L6.953 37.435l6.954-6.985zm-13.38.51l5.887 5.928c.3.3.783.3 1.083 0l23.497-23.677a8.947 8.947 0 0 0 2.593-6.305A8.947 8.947 0 0 0 30.994.602l-.17-.172a.756.756 0 0 0-1.082 0L.527 29.865a.781.781 0 0 0 .016 1.095H.527z" fill="#FFF"/><path d="M13.907 30.45L30.84 47.513a9.186 9.186 0 0 1 2.666 6.476c0 2.43-.959 4.76-2.666 6.476a.756.756 0 0 1-1.082 0L6.095 36.554l7.812-6.104zm-13.364.51l5.888 5.928c.3.3.783.3 1.082 0L31.01 13.211a8.947 8.947 0 0 0 2.594-6.305A8.947 8.947 0 0 0 31.01.602L30.84.43a.756.756 0 0 0-1.082 0L.543 29.865a.781.781 0 0 0 0 1.095z" fill="url(#a)"/><path d="M.63 31.043l6.34 6.393 23.958-24.137c3.503-3.53 3.503-9.254 0-12.785a.883.883 0 0 0-1.244 0L.639 29.78a.89.89 0 0 0-.009 1.262z" fill="#FFF"/><g><path d="M84.18 30.45L67.157 47.513c-3.564 3.578-3.564 9.375 0 12.952a.77.77 0 0 0 1.092 0l22.896-23.03-6.967-6.985zm13.428.51l-5.916 5.928a.761.761 0 0 1-1.088 0L66.992 13.211a8.924 8.924 0 0 1-2.607-6.305c0-2.365.938-4.633 2.607-6.304l.17-.172c.301-.3.787-.3 1.088 0l29.358 29.44c.3.3.3.788 0 1.09z" fill="#FFF"/><path d="M20.18 30.45L3.157 47.513c-3.564 3.578-3.564 9.375 0 12.952a.77.77 0 0 0 1.092 0l23.775-23.911-7.846-6.104zm13.428.51l-5.916 5.928a.761.761 0 0 1-1.088 0L2.992 13.211A8.924 8.924 0 0 1 .385 6.906c0-2.365.938-4.633 2.607-6.304l.17-.172c.301-.3.787-.3 1.088 0l29.358 29.44c.3.3.3.788 0 1.09z" fill="url(#b)" transform="translate(64)"/><path d="M97.52 31.043l-6.374 6.393-24.071-24.137c-3.52-3.53-3.52-9.254 0-12.785a.89.89 0 0 1 1.25 0L97.513 29.78a.887.887 0 0 1 .008 1.262z" fill="#FFF"/></g><path d="M56.164 29.483h7.203v13.335a20.904 20.904 0 0 1-6.424 3.1 25.867 25.867 0 0 1-7.35 1.08c-3.318.05-6.598-.7-9.54-2.183a16.626 16.626 0 0 1-6.643-6.06 17.109 17.109 0 0 1 0-17.51 16.552 16.552 0 0 1 6.695-6.06 20.945 20.945 0 0 1 9.64-2.183c2.78-.04 5.54.451 8.123 1.445A16.076 16.076 0 0 1 64 18.672l-5.06 4.507c-2.252-2.397-5.46-3.748-8.813-3.71a12.41 12.41 0 0 0-5.77 1.328 9.597 9.597 0 0 0-3.942 3.71 11.306 11.306 0 0 0 0 10.94 9.82 9.82 0 0 0 3.916 3.736 11.963 11.963 0 0 0 5.723 1.34 13.127 13.127 0 0 0 6.132-1.411l-.022-9.629z" fill="#FFF"/></g></g></svg>
